logos/immer-icon.svg

<?xml version="1.0" encoding="UTF-8"?>
<svg width="256px" height="145px" viewBox="0 0 256 145" version="1.1" xmlns="http://www.w3.org/2000/svg" xmlns:xlink="http://www.w3.org/1999/xlink" preserveAspectRatio="xMidYMid">
    <title>immer</title>
    <g>
        <path d="M189.727465,0 C212.302021,0 234.876577,14.021611 244.263141,41.7423854 C240.298871,40.1409324 236.06176,39.3213336 231.785827,39.3299609 C226.885488,39.3234904 222.044463,40.4008315 217.608924,42.4854165 C211.192327,28.9048791 199.782648,23.6389565 187.886602,23.6389565 C172.301708,23.6389565 157.650297,40.0545191 141.678268,64.9873319 C142.280066,65.8222248 142.884635,66.6627449 143.491407,67.5069569 L144.505772,68.9185695 C144.675167,69.154311 144.844728,69.3902644 145.014451,69.6263929 L146.03473,71.0449698 C146.375462,71.5183328 146.716826,71.9921015 147.058803,72.4659817 L148.086552,73.8876619 C161.642253,92.603099 176.122889,111.032998 190.308733,111.032998 C201.192143,111.032998 204.432794,108.792042 212.355942,99.8648854 C218.02088,103.926213 224.81708,106.107856 231.786905,106.100307 C235.683235,106.100307 239.429665,105.431687 242.917273,104.204446 C243.262368,104.193661 243.531973,104.172093 243.715304,104.118172 C233.842373,129.901027 209.599502,144.116753 188.00415,144.116753 C161.415861,144.116753 142.741748,120.0155 124.093104,93.7387823 C107.092807,121.034565 89.966884,142.942354 65.1538305,142.942354 C43.3859319,142.942354 21.6191117,129.901027 11.682554,104.119251 C11.8011802,104.151603 11.9629431,104.183956 12.1570586,104.205524 C15.7223136,105.46404 19.4752137,106.104621 23.2550742,106.100307 C28.4886442,106.107856 33.6488818,104.878458 38.3162816,102.513484 C44.8827782,114.564822 55.7338357,119.304476 67.0043984,119.304476 C81.8058452,119.304476 99.3334836,98.9324432 112.988879,78.0386635 C94.204745,51.5972536 79.3986426,32.4616479 62.9894424,31.9104344 C54.8613943,31.6408295 47.4019663,36.5735206 41.5774223,44.8115675 C36.1400309,41.2258225 29.7676498,39.3202551 23.2550742,39.3299609 C19.7782496,39.3299609 16.4308353,39.8583865 13.2764581,40.8483756 C22.7600796,13.7207319 44.9151308,0 67.0691036,0 C93.0940851,0 111.230157,23.4285479 130.249359,49.3652616 C146.419191,23.0261328 164.827478,0 189.727465,0 Z M24.2193641,48.4823003 C37.5953495,48.4823003 48.4387281,59.3299631 48.4387281,72.7112332 C48.4387281,86.0925034 37.5953495,96.9401661 24.2193641,96.9401661 C10.8433786,96.9401661 0,86.0925034 0,72.7112332 C0,59.3299631 10.8433786,48.4823003 24.2193641,48.4823003 Z M231.780636,48.4823003 C245.156621,48.4823003 256,59.3299631 256,72.7112332 C256,86.0925034 245.156621,96.9401661 231.780636,96.9401661 C218.404651,96.9401661 207.561272,86.0925034 207.561272,72.7112332 C207.561272,59.3299631 218.404651,48.4823003 231.780636,48.4823003 Z" fill="#00E7C3" fill-rule="nonzero"></path>
    </g>
</svg>

<svg width="256" height="145" xmlns="http://www.w3.org/2000/svg" preserveAspectRatio="xMidYMid">
	<path d="M189.727 0c22.575 0 45.15 14.022 54.536 41.742a33.134 33.134 0 0 0-12.477-2.412 33.227 33.227 0 0 0-14.177 3.155c-6.417-13.58-17.826-18.846-29.722-18.846-15.585 0-30.237 16.416-46.209 41.348.602.835 1.207 1.676 1.813 2.52l1.015 1.412.508.707 1.02 1.419 1.025 1.421 1.028 1.422c13.555 18.715 28.036 37.145 42.222 37.145 10.883 0 14.124-2.241 22.047-11.168a33.288 33.288 0 0 0 19.43 6.235c3.897 0 7.644-.668 11.131-1.896.345-.01.615-.032.798-.086-9.873 25.783-34.115 39.999-55.71 39.999-26.59 0-45.263-24.101-63.912-50.378-17 27.296-34.126 49.203-58.94 49.203-21.767 0-43.534-13.041-53.47-38.823.118.033.28.065.474.087a33.225 33.225 0 0 0 11.098 1.894 33.215 33.215 0 0 0 15.061-3.587c6.567 12.052 17.418 16.791 28.688 16.791 14.802 0 32.33-20.372 45.985-41.265-18.784-26.442-33.59-45.577-50-46.129-8.128-.27-15.587 4.664-21.412 12.902a33.191 33.191 0 0 0-18.322-5.482c-3.477 0-6.824.528-9.979 1.518C22.76 13.721 44.916 0 67.07 0c26.025 0 44.161 23.429 63.18 49.365C146.42 23.026 164.827 0 189.727 0ZM24.22 48.482c13.376 0 24.22 10.848 24.22 24.23 0 13.38-10.844 24.228-24.22 24.228S0 86.093 0 72.711C0 59.33 10.843 48.482 24.22 48.482Zm207.562 0c13.376 0 24.219 10.848 24.219 24.23 0 13.38-10.843 24.228-24.22 24.228-13.375 0-24.219-10.847-24.219-24.229 0-13.381 10.844-24.229 24.22-24.229Z" fill="#00E7C3"/>
</svg>
